X: 25567
T: Marion MacLean Of Eoligarry
R: waltz
M: 3/4
K: Dmajor
FE|D3 EFA|E4 FE|D2 d2 c2|B3 BdB|AGFDAF|E4 DE|F3 G F2|E4 FE|
D3 EFA|E4 FE|D2 d2 c2|B3 BAG|FG A2 F2|E6|D6-|D4:|
fg|a4 df|e4 fe|d2 c2 A2|B3 BAG|FA d2 f2|e4 dc|Bd f2 b2|a4 fg|
a3 dfg|e4 fe|d2 c2 A2|B4 AG|FG A2 F2|E6|D6-|D4 fg|
a4 df|e4 fe|d2 c2 A2|B3 BAG|FA d2 f2|e4 dc|Bd f2 b2|a4 AG|
F3 EFG|A4 Bc|d2 c2 A2|B4 AG|FG A2 F2|E6|D6-|D6||

